public/icons/logo.svg

<svg width="160" height="76" viewBox="0 0 160 76" fill="none" xmlns="http://www.w3.org/2000/svg">
<g clip-path="url(#clip0_138_1272)">
<path d="M160 76H0V-7.62939e-06H160V76Z" fill="#221F20"/>
<path fill-rule="evenodd" clip-rule="evenodd" d="M89.1128 44.4725C92.6572 44.4725 95.5319 47.3507 95.5319 50.9037C95.5319 54.4552 92.6572 57.3333 89.1128 57.3333C85.568 57.3333 82.6934 54.4552 82.6934 50.9037C82.6934 47.3507 85.568 44.4725 89.1128 44.4725Z" fill="white"/>
<path fill-rule="evenodd" clip-rule="evenodd" d="M104.21 44.4725C107.755 44.4725 110.629 47.3507 110.629 50.9037C110.629 54.4552 107.755 57.3333 104.21 57.3333C100.665 57.3333 97.791 54.4552 97.791 50.9037C97.791 47.3507 100.665 44.4725 104.21 44.4725Z" fill="white"/>
<path fill-rule="evenodd" clip-rule="evenodd" d="M119.309 44.4901C122.856 44.4901 125.729 47.3696 125.729 50.9205C125.729 54.4712 122.856 57.3509 119.309 57.3509C115.764 57.3509 112.891 54.4712 112.891 50.9205C112.891 47.3696 115.764 44.4901 119.309 44.4901Z" fill="white"/>
<path fill-rule="evenodd" clip-rule="evenodd" d="M134.408 44.4725C137.952 44.4725 140.827 47.3507 140.827 50.9037C140.827 54.4552 137.952 57.3333 134.408 57.3333C130.863 57.3333 127.988 54.4552 127.988 50.9037C127.988 47.3507 130.863 44.4725 134.408 44.4725Z" fill="white"/>
<path d="M90.5599 48.3067H87.6602V53.7299C87.6602 54.14 87.4074 54.344 86.9062 54.344C86.4028 54.344 86.1519 54.14 86.1484 53.7283V47.7499C86.1484 47.3363 86.4012 47.1304 86.911 47.1304H91.3152C91.8237 47.1304 92.0761 47.3363 92.073 47.7499V53.7283C92.0692 54.14 91.8167 54.344 91.3152 54.344C90.8118 54.344 90.5593 54.14 90.5593 53.7299V48.3067H90.5599Z" fill="#221F20"/>
<path d="M104.188 48.6976H104.167L103.183 51.4296H105.188L104.188 48.6976ZM101.616 54.3864C101.15 54.3864 100.918 54.2171 100.918 53.8805C100.918 53.7845 100.946 53.6536 101.003 53.4896L103.232 47.8131C103.325 47.5672 103.443 47.3752 103.594 47.2408C103.746 47.1067 103.958 47.0384 104.232 47.0384C104.507 47.0384 104.728 47.1117 104.895 47.2565C105.064 47.3997 105.185 47.5792 105.257 47.7939L107.502 53.5C107.535 53.5888 107.552 53.6867 107.552 53.7896C107.552 53.9885 107.472 54.1387 107.314 54.2363C107.155 54.3355 106.967 54.3864 106.753 54.3864C106.379 54.3864 106.151 54.2504 106.071 53.9781L105.519 52.4691H102.842L102.309 53.952C102.2 54.2416 101.968 54.3864 101.616 54.3864Z" fill="#221F20"/>
<path d="M117.014 47.9901C117.014 47.5715 117.301 47.3621 117.876 47.3621H119.875C120.662 47.3621 121.258 47.5557 121.66 47.9445C122.066 48.3355 122.271 48.852 122.271 49.4955C122.271 50.544 121.8 51.2419 120.859 51.5891C120.551 51.7008 120.203 51.7547 119.805 51.7512H118.527V53.9632C118.527 54.3696 118.275 54.5736 117.771 54.5736C117.27 54.5736 117.017 54.3696 117.014 53.9597V47.9901H117.014ZM120.81 49.5672C120.81 48.8661 120.436 48.5117 119.691 48.5048H118.527V50.6488H119.661C120.015 50.6488 120.297 50.5597 120.504 50.3819C120.707 50.204 120.81 49.932 120.81 49.5672Z" fill="#221F20"/>
<path d="M131.723 47.9096C131.726 47.4979 131.979 47.292 132.482 47.292C132.983 47.292 133.236 47.5347 133.236 48.016V50.6728H133.251L135.667 47.8816C136.005 47.4875 136.349 47.2917 136.704 47.2917C136.94 47.2917 137.108 47.3389 137.211 47.4333C137.313 47.5277 137.363 47.6408 137.363 47.7752C137.363 47.908 137.306 48.0405 137.189 48.1675L134.772 50.788L137.342 53.6016C137.494 53.7725 137.568 53.9347 137.568 54.0883C137.568 54.2435 137.511 54.3691 137.391 54.4651C137.273 54.5595 137.086 54.6083 136.832 54.6083C136.576 54.6083 136.353 54.5315 136.161 54.3816C135.968 54.2296 135.77 54.0293 135.561 53.7781L133.252 51.1053H133.236V53.9944C133.236 54.4024 132.984 54.6083 132.482 54.6083C131.979 54.6083 131.726 54.3643 131.723 53.8773L131.723 47.9096Z" fill="#221F20"/>
<path d="M26.4233 17.0667L19.1367 39.5736H25.8772L30.8202 21.7292H31.5264L36.4696 39.5736H43.2103L35.924 17.0667H26.4233Z" fill="white"/>
<path d="M62.2916 23.4976H56.2895L56.0641 25.5234C55.0371 23.8513 53.2718 22.9829 51.0573 22.9829C48.6818 22.9829 46.8524 23.9153 45.5684 25.3624C44.4128 26.6485 43.418 28.6744 43.418 31.536C43.418 34.3979 44.4131 36.4237 45.5684 37.7088C46.8527 39.1568 48.6818 40.0883 51.0573 40.0883C54.4274 40.0883 55.6792 38.192 56.0641 37.4837L56.2895 39.5733H62.2916V23.4976ZM56.2249 31.44C56.2249 32.2115 56.1608 33.3688 55.5833 34.2696C55.0049 35.1696 54.1709 35.588 53.0794 35.588C52.02 35.588 51.1533 35.1699 50.5433 34.2373C49.9657 33.3373 49.9017 32.276 49.9017 31.44C49.9017 30.636 49.966 29.5752 50.5433 28.6747C51.1533 27.7424 52.02 27.3243 53.0794 27.3243C54.1707 27.3243 55.0049 27.7424 55.5833 28.6427C56.0965 29.4459 56.2249 30.4429 56.2249 31.44Z" fill="white"/>
<path d="M76.5901 31.44C76.5901 33.0475 76.2053 33.8512 75.9807 34.2371C75.5953 34.848 74.8572 35.5877 73.4446 35.5877C72.3855 35.5877 71.519 35.1696 70.9091 34.2371C70.3312 33.3371 70.2669 32.2757 70.2669 31.44C70.2669 30.6357 70.3312 29.5749 70.9091 28.6747C71.519 27.7421 72.3852 27.324 73.4446 27.324C74.857 27.324 75.5953 28.0635 75.9807 28.6747C76.2374 29.0603 76.5901 29.8643 76.5901 31.44ZM82.6571 23.4976H76.6869L76.4299 25.5234C75.4029 23.8513 73.6376 22.9829 71.4223 22.9829C69.047 22.9829 67.2179 23.9153 65.9339 25.3624C64.7786 26.6485 63.7832 28.6744 63.7832 31.536C63.7832 34.3979 64.7786 36.4237 65.9339 37.7088C67.25 39.1568 69.0154 40.0883 71.4223 40.0883C72.7706 40.0883 75.0815 39.7672 76.4299 37.4837V39.5733C76.4299 40.1525 76.457 41.8413 75.9485 42.4555C75.3665 43.1584 74.3751 43.2597 73.6694 43.2597H72.5463V47.408H74.2154C76.4301 47.408 78.7097 47.3747 80.538 45.8328C82.3679 44.2891 82.6571 41.4069 82.6571 39.5736V23.4976Z" fill="white"/>
<path d="M84.1484 31.536C84.1484 34.6229 85.4965 36.7128 87.0688 38.0315C88.5769 39.2859 90.6962 40.2173 93.7123 40.2173C96.73 40.2173 98.848 39.2859 100.358 38.0315C101.93 36.7125 103.278 34.6227 103.278 31.536C103.278 28.4496 101.93 26.3594 100.358 25.0411C98.8477 23.7867 96.73 22.8543 93.7123 22.8543C90.6959 22.8543 88.5766 23.7867 87.0688 25.0411C85.4965 26.3596 84.1484 28.4493 84.1484 31.536ZM90.6316 31.44C90.6316 30.3467 90.7273 29.3496 91.1457 28.5136C91.8194 27.1955 92.9737 26.9384 93.7123 26.9384C94.4506 26.9384 95.607 27.1955 96.2808 28.5136C96.6973 29.3496 96.7946 30.3467 96.7946 31.44C96.7946 32.5653 96.6973 33.5944 96.2808 34.3981C95.607 35.7165 94.4506 35.9733 93.7123 35.9733C92.9737 35.9733 91.8194 35.7163 91.1457 34.3981C90.7276 33.5944 90.6316 32.5651 90.6316 31.44Z" fill="white"/>
<path d="M104.257 28.7707H110.485V28.3851C110.485 27.9347 110.516 27.2917 111.061 26.7773C111.479 26.3913 111.96 26.2951 112.442 26.2951C112.763 26.2951 113.341 26.3274 113.759 26.6487C113.983 26.8413 114.273 27.1635 114.273 27.7099C114.273 28.3205 113.95 28.7067 113.759 28.8675C113.341 29.1891 112.602 29.3816 111.159 29.7032C108.494 30.3141 107.371 30.7323 106.664 31.0856C104.898 32.0187 104.064 33.3371 104.128 35.2341C104.193 36.8419 104.931 38.4173 107.113 39.4133C107.756 39.7029 109.264 40.2821 112.442 40.2821C114.433 40.2821 116.743 40.0237 118.476 38.8675C120.531 37.484 121.012 35.3947 121.141 34.1731H114.722V34.5587C114.722 35.2019 114.432 35.7485 114.079 36.0699C113.597 36.5203 113.02 36.6165 112.442 36.6165C111.897 36.6165 111.446 36.552 111.126 36.3269C110.645 36.0056 110.548 35.5232 110.548 35.1696C110.548 34.3336 111.03 34.0445 111.704 33.7869C112.442 33.5296 113.372 33.3688 114.849 32.9829C116.839 32.4363 118.027 32.0504 118.861 31.4077C119.824 30.6683 120.595 29.4459 120.531 27.8061C120.498 26.8739 120.178 24.9768 117.931 23.7869C116.39 22.9831 114.143 22.7583 112.442 22.7905C109.713 22.8224 108.172 23.4014 107.273 23.8839C105.252 24.9766 104.322 26.8413 104.257 28.7707Z" fill="white"/>
<path d="M140.864 23.4976H134.861L134.637 25.5234C133.609 23.8513 131.845 22.9829 129.63 22.9829C127.255 22.9829 125.424 23.9153 124.141 25.3624C122.985 26.6485 121.99 28.6744 121.99 31.536C121.99 34.3979 122.985 36.4237 124.141 37.7088C125.424 39.1568 127.255 40.0883 129.63 40.0883C133 40.0883 134.251 38.192 134.637 37.4837L134.861 39.5733H140.864V23.4976ZM134.797 31.44C134.797 32.2115 134.732 33.3688 134.156 34.2696C133.577 35.1696 132.743 35.588 131.652 35.588C130.593 35.588 129.726 35.1699 129.116 34.2373C128.538 33.3373 128.474 32.276 128.474 31.44C128.474 30.636 128.538 29.5752 129.116 28.6747C129.726 27.7424 130.593 27.3243 131.652 27.3243C132.743 27.3243 133.578 27.7424 134.156 28.6427C134.67 29.4459 134.797 30.4429 134.797 31.44Z" fill="white"/>
</g>
<defs>
<clipPath id="clip0_138_1272">
<rect width="160" height="76" fill="white"/>
</clipPath>
</defs>
</svg>

<svg xmlns="http://www.w3.org/2000/svg" width="160" height="76" fill="none"><g clip-path="url(#a)"><path fill="#221F20" d="M160 76H0V0h160v76Z"/><path fill="#fff" fill-rule="evenodd" d="M89.113 44.472c3.544 0 6.419 2.879 6.419 6.432 0 3.551-2.875 6.43-6.42 6.43a6.425 6.425 0 0 1-6.419-6.43c0-3.553 2.875-6.432 6.42-6.432ZM104.21 44.472c3.545 0 6.419 2.879 6.419 6.432 0 3.551-2.874 6.43-6.419 6.43-3.545 0-6.419-2.879-6.419-6.43 0-3.553 2.874-6.432 6.419-6.432ZM119.309 44.49c3.547 0 6.42 2.88 6.42 6.43 0 3.551-2.873 6.43-6.42 6.43-3.545 0-6.418-2.879-6.418-6.43 0-3.55 2.873-6.43 6.418-6.43ZM134.408 44.472c3.544 0 6.419 2.879 6.419 6.432 0 3.551-2.875 6.43-6.419 6.43a6.425 6.425 0 0 1-6.42-6.43c0-3.553 2.875-6.432 6.42-6.432Z" clip-rule="evenodd"/><path fill="#221F20" d="M90.56 48.307h-2.9v5.423c0 .41-.253.614-.754.614-.503 0-.754-.204-.758-.616V47.75c0-.414.253-.62.763-.62h4.404c.509 0 .761.206.758.62v5.978c-.004.412-.256.616-.758.616-.503 0-.756-.204-.756-.614v-5.423ZM104.188 48.698h-.021l-.984 2.732h2.005l-1-2.732Zm-2.572 5.688c-.466 0-.698-.169-.698-.506 0-.096.028-.226.085-.39l2.229-5.677c.093-.246.211-.438.362-.572.152-.134.364-.203.638-.203.275 0 .496.074.663.219.169.143.29.322.362.537l2.245 5.706a.83.83 0 0 1 .05.29c0 .199-.08.349-.238.446-.159.1-.347.15-.561.15-.374 0-.602-.136-.682-.408l-.552-1.509h-2.677l-.533 1.483c-.109.29-.341.434-.693.434ZM117.014 47.99c0-.419.287-.628.862-.628h1.999c.787 0 1.383.194 1.785.582.406.392.611.908.611 1.551 0 1.049-.471 1.747-1.412 2.094a2.989 2.989 0 0 1-1.054.162h-1.278v2.212c0 .407-.252.61-.756.61-.501 0-.754-.203-.757-.613v-5.97Zm3.796 1.577c0-.7-.374-1.055-1.119-1.062h-1.164v2.144h1.134c.354 0 .636-.09.843-.267.203-.178.306-.45.306-.815ZM131.723 47.91c.003-.412.256-.618.759-.618.501 0 .754.243.754.724v2.657h.015l2.416-2.791c.338-.395.682-.59 1.037-.59.236 0 .404.047.507.141a.447.447 0 0 1 .152.342.58.58 0 0 1-.174.392l-2.417 2.621 2.57 2.814c.152.17.226.333.226.486 0 .155-.057.281-.177.377-.118.094-.305.143-.559.143a1.06 1.06 0 0 1-.671-.226 4.11 4.11 0 0 1-.6-.604l-2.309-2.673h-.016v2.89c0 .407-.252.613-.754.613-.503 0-.756-.244-.759-.73V47.91Z"/><path fill="#fff" d="m26.423 17.067-7.286 22.507h6.74l4.943-17.845h.706l4.944 17.845h6.74l-7.286-22.507h-9.5ZM62.292 23.498h-6.003l-.225 2.025c-1.027-1.672-2.792-2.54-5.007-2.54-2.375 0-4.205.932-5.489 2.38-1.155 1.285-2.15 3.311-2.15 6.173s.995 4.888 2.15 6.173c1.285 1.448 3.114 2.38 5.49 2.38 3.37 0 4.621-1.897 5.006-2.605l.225 2.09h6.003V23.497Zm-6.067 7.942c0 .771-.064 1.929-.642 2.83-.578.9-1.412 1.318-2.504 1.318-1.059 0-1.926-.418-2.536-1.35-.577-.9-.641-1.962-.641-2.798 0-.804.064-1.865.641-2.765.61-.933 1.477-1.35 2.536-1.35 1.092 0 1.926.417 2.504 1.318.514.803.642 1.8.642 2.797ZM76.59 31.44c0 1.607-.385 2.411-.61 2.797-.385.611-1.123 1.35-2.535 1.35-1.06 0-1.926-.417-2.536-1.35-.578-.9-.642-1.961-.642-2.797 0-.804.064-1.865.642-2.765.61-.933 1.476-1.351 2.536-1.351 1.412 0 2.15.74 2.536 1.35.256.386.61 1.19.61 2.766Zm6.067-7.942h-5.97l-.257 2.025c-1.027-1.672-2.792-2.54-5.008-2.54-2.375 0-4.204.932-5.488 2.38-1.155 1.285-2.15 3.311-2.15 6.173s.995 4.888 2.15 6.173c1.316 1.448 3.081 2.38 5.488 2.38 1.349 0 3.66-.322 5.008-2.605v2.09c0 .579.027 2.267-.482 2.882-.581.702-1.573.804-2.279.804h-1.123v4.148h1.67c2.214 0 4.494-.033 6.322-1.575 1.83-1.544 2.12-4.426 2.12-6.26V23.499ZM84.148 31.536c0 3.087 1.349 5.177 2.92 6.495 1.509 1.255 3.628 2.186 6.644 2.186 3.018 0 5.136-.931 6.646-2.185 1.572-1.32 2.92-3.41 2.92-6.496 0-3.086-1.348-5.177-2.92-6.495-1.51-1.254-3.628-2.187-6.646-2.187-3.016 0-5.135.933-6.643 2.187-1.573 1.319-2.92 3.408-2.92 6.495Zm6.484-.096c0-1.093.095-2.09.514-2.926.673-1.319 1.828-1.576 2.566-1.576.739 0 1.895.258 2.569 1.576.416.836.514 1.833.514 2.926 0 1.125-.098 2.154-.514 2.958-.674 1.319-1.83 1.575-2.569 1.575-.738 0-1.893-.257-2.566-1.575-.418-.804-.514-1.833-.514-2.958ZM104.257 28.77h6.228v-.385c0-.45.031-1.093.576-1.608.418-.386.899-.482 1.381-.482.321 0 .899.032 1.317.354.224.192.514.514.514 1.06 0 .611-.323.998-.514 1.159-.418.321-1.157.514-2.6.835-2.665.611-3.788 1.03-4.495 1.383-1.766.933-2.6 2.251-2.536 4.148.065 1.608.803 3.183 2.985 4.18.643.289 2.151.868 5.329.868 1.991 0 4.301-.258 6.034-1.414 2.055-1.384 2.536-3.473 2.665-4.695h-6.419v.386c0 .643-.29 1.19-.643 1.51-.482.451-1.059.547-1.637.547-.545 0-.996-.064-1.316-.29-.481-.32-.578-.803-.578-1.156 0-.836.482-1.126 1.156-1.383.738-.257 1.668-.418 3.145-.804 1.99-.547 3.178-.933 4.012-1.575.963-.74 1.734-1.962 1.67-3.602-.033-.932-.353-2.83-2.6-4.02-1.541-.803-3.788-1.028-5.489-.995-2.729.031-4.27.61-5.169 1.093-2.021 1.093-2.951 2.957-3.016 4.887ZM140.864 23.498h-6.003l-.224 2.025c-1.028-1.672-2.792-2.54-5.007-2.54-2.375 0-4.206.932-5.489 2.38-1.156 1.285-2.151 3.311-2.151 6.173s.995 4.888 2.151 6.173c1.283 1.448 3.114 2.38 5.489 2.38 3.37 0 4.621-1.897 5.007-2.605l.224 2.09h6.003V23.497Zm-6.067 7.942c0 .771-.065 1.929-.641 2.83-.579.9-1.413 1.318-2.504 1.318-1.059 0-1.926-.418-2.536-1.35-.578-.9-.642-1.962-.642-2.798 0-.804.064-1.865.642-2.765.61-.933 1.477-1.35 2.536-1.35 1.091 0 1.926.417 2.504 1.318.514.803.641 1.8.641 2.797Z"/></g><defs><clipPath id="a"><path fill="#fff" d="M0 0h160v76H0z"/></clipPath></defs></svg>
